source/img/sprite/vk.svg

<svg width="13" height="8" viewBox="0 0 13 8" fill="none" xmlns="http://www.w3.org/2000/svg">
<path d="M7.72271 6.05176C8.16539 5.90867 8.73216 6.99638 9.33552 7.41267C9.78838 7.728 10.1352 7.65993 10.1352 7.65993L11.7434 7.63678C11.7434 7.63678 12.5838 7.58492 12.1865 6.9172C12.1536 6.86163 11.9536 6.4222 10.9895 5.51786C9.98147 4.57185 10.1181 4.72512 11.3317 3.08962C12.0712 2.09267 12.3671 1.48376 12.2745 1.22445C12.1856 0.974862 11.6424 1.03969 11.6424 1.03969L9.83052 1.05219C9.6541 1.05265 9.50453 1.10729 9.43646 1.29066C9.43507 1.29252 9.14891 2.06211 8.76735 2.7164C7.96118 4.10046 7.63936 4.17408 7.506 4.08749C7.19992 3.88699 7.27725 3.28317 7.27725 2.85392C7.27725 1.51246 7.47729 0.953099 6.88551 0.808627C6.68779 0.760469 6.54332 0.728982 6.03905 0.724351C5.39449 0.714627 4.84716 0.724351 4.53692 0.876695C4.33086 0.979956 4.17296 1.20639 4.26881 1.21935C4.3892 1.23556 4.65916 1.29344 4.80363 1.4907C4.98932 1.74631 4.98376 2.3191 4.98376 2.3191C4.98376 2.3191 5.0898 3.89857 4.73371 4.09444C4.48922 4.22872 4.1549 3.9546 3.43578 2.69788C3.06858 2.05516 2.79121 1.34484 2.79121 1.34484C2.79121 1.34484 2.7375 1.21287 2.64026 1.14063C2.52449 1.05497 2.36243 1.02765 2.36243 1.02765L0.642654 1.03876C0.642654 1.03876 0.384271 1.04617 0.289345 1.16008C0.20507 1.26103 0.2824 1.4694 0.2824 1.4694C0.2824 1.4694 1.62942 4.65566 3.15471 6.26059C4.55312 7.73402 6.14231 7.63632 6.14231 7.63632H6.86236C6.86236 7.63632 7.07953 7.61131 7.19066 7.49185C7.29439 7.38071 7.28976 7.17188 7.28976 7.17188C7.28976 7.17188 7.2754 6.1953 7.72271 6.05176Z" fill="#030A1A"/>
</svg>

<svg viewBox="0 0 13 8" fill="none" xmlns="http://www.w3.org/2000/svg"><path d="M7.72 6.05c.45-.14 1.01.95 1.62 1.36.45.32.8.25.8.25l1.6-.02s.84-.06.45-.72c-.04-.06-.24-.5-1.2-1.4-1-.95-.87-.8.34-2.43.74-1 1.04-1.6.94-1.87-.08-.25-.63-.18-.63-.18l-1.8.01c-.19 0-.34.06-.4.24 0 0-.3.77-.67 1.43-.8 1.38-1.13 1.45-1.26 1.37-.31-.2-.23-.8-.23-1.24 0-1.34.2-1.9-.4-2.04a3.1 3.1 0 0 0-.84-.09c-.65 0-1.2 0-1.5.16-.2.1-.37.33-.27.34.12.02.39.07.53.27.19.26.18.83.18.83s.11 1.58-.25 1.77c-.24.14-.58-.14-1.3-1.4-.36-.63-.64-1.35-.64-1.35s-.05-.13-.15-.2a.67.67 0 0 0-.28-.11h-1.72s-.26.02-.35.13c-.08.1 0 .3 0 .3s1.34 3.2 2.86 4.8c1.4 1.47 3 1.38 3 1.38h.71s.22-.03.33-.15c.1-.1.1-.32.1-.32s-.01-.97.43-1.12Z" fill="#030A1A"/></svg>
